X:1
T:Title
%%score { 1 | 2 }
L:1/8
Q:1/4=90
M:6/8
K:F
V:1 treble nm="Grand Piano"
V:2 bass 
V:1
 AAA A2 G | G F2- F2 z | [Ec][Ec][Ec] [Ec]2 [EB] | A6 | ddd d2 c | c B2- B2 z | AAA [CGB]2 [CFA] | %7
w: John~R.~Sweney * * * *|||||||
 [CEG]6 | CDE F2 [B,DG] | [A,CF]3 [G,CE]3 | CEG [EB]2 [EB] | A6 | ccc [^Fc]2 [DFA] | %13
w: ||||||
 [DAc]3 [DGB]3 | [CEA][B,EG][E,C] [CEA]2 [B,EG] | F6 | cdc AGA | c B2- B2 z | %18
w: |||||
 [EB][Ec][EB] [EG][DF][EG] | A6 | AGF c2 A | [DB]3 D3 | E[Ec][EB] [EA]2 [EG] | [CF]6 |] %24
w: ||||||
V:2
 [F,CF][F,CF][F,CF] [F,CF]2 [F,B,C] | [F,B,C] [F,A,C]2- [F,A,C]2 z | %2
 [C,G,][C,G,][C,G,] [C,G,]2 [C,C] | [F,CF]6 | [B,F][B,F][B,F] [B,F]2 [A,CF] | %5
 [G,CE] [G,CE]2- [G,CE]2 z | [F,CF][F,CF][F,CF] E,2 F, | C,6 | C,D,E, F,2 B,, | C,3 C,3 | %10
 C,E,G, [C,G,]2 [C,C] | [F,CF]6 | [F,A,F][F,A,F][F,A,F] [D,A,]2 D, | G,3 G,3 | C,C,C, C,2 C, | %15
 [F,A,C]6 | [F,A,F][F,B,F][F,A,F] [F,CF]2 [F,CF] | [G,CE] [G,CE]2- [G,CE]2 z | %18
 [C,G,][C,G,][C,G,] [C,C]2 [C,C] | [F,CF]6 | [F,CF][F,B,F][F,A,] [F,A,_E]2 [F,E] | %21
 [B,,F,]3 [B,,B,]3 | [C,G,C][C,G,][C,G,] [C,C]2 [C,B,] | [F,A,]6 |] %24

